assets/img/icon_pdf.svg

<svg width="58" height="58" viewBox="0 0 58 58" xmlns="http://www.w3.org/2000/svg"><title>icon_pdf</title><path d="M29.087 34.312V23.426h3.57v10.886h-3.57zm-18.2-7.14v-3.746h3.57v3.745h-3.57zM52.6 23.425v-5.4H41.716V39.8h5.4v-7.142H52.6V27.17h-5.486v-3.744H52.6zM38.145 34.312V23.426c0-1.51-.537-2.786-1.61-3.83-1.075-1.046-2.367-1.57-3.876-1.57h-8.97V39.8h8.97c1.51 0 2.8-.524 3.875-1.57 1.074-1.044 1.61-2.35 1.61-3.918zm-18.2-7.14v-3.746c0-1.51-.538-2.786-1.612-3.83-1.074-1.046-2.366-1.57-3.876-1.57h-8.97V39.8h5.4v-7.142h3.57c1.51 0 2.802-.523 3.876-1.568 1.074-1.045 1.61-2.35 1.61-3.92zM50.858 0c1.973 0 3.657.697 5.05 2.09C57.303 3.483 58 5.167 58 7.14v43.545c0 1.974-.697 3.686-2.09 5.138C54.517 57.273 52.833 58 50.86 58H7.314c-1.974 0-3.686-.726-5.138-2.177C.727 54.37 0 52.66 0 50.685V7.14c0-1.973.726-3.657 2.177-5.05C3.63.697 5.34 0 7.315 0H50.86z" fill="#9B9B9B" fill-rule="evenodd"/></svg>

<?xml version="1.0" encoding="UTF-8"?>
<svg width="58px" height="58px" viewBox="0 0 58 58" version="1.1" xmlns="http://www.w3.org/2000/svg" xmlns:xlink="http://www.w3.org/1999/xlink">
    <!-- Generator: Sketch 55.2 (78181) - https://sketchapp.com -->
    <title>Shape</title>
    <desc>Created with Sketch.</desc>
    <defs>
        <linearGradient x1="0%" y1="0%" x2="100%" y2="100%" id="linearGradient-1">
            <stop stop-color="#22B8CF" offset="0%"></stop>
            <stop stop-color="#4BD5EA" offset="100%"></stop>
        </linearGradient>
    </defs>
    <g id="Page-1" stroke="none" stroke-width="1" fill="none" fill-rule="evenodd" opacity="0.9">
        <g id="icon_pdf" fill="#222222" fill-rule="nonzero">
            <g id="Page-1">
                <g id="icon_pdf">
                    <path d="M29.087,34.312 L29.087,23.426 L32.657,23.426 L32.657,34.312 L29.087,34.312 L29.087,34.312 Z M10.887,27.172 L10.887,23.426 L14.457,23.426 L14.457,27.171 L10.887,27.171 L10.887,27.172 Z M52.6,23.425 L52.6,18.025 L41.716,18.025 L41.716,39.8 L47.116,39.8 L47.116,32.658 L52.6,32.658 L52.6,27.17 L47.114,27.17 L47.114,23.426 L52.6,23.426 L52.6,23.425 Z M38.145,34.312 L38.145,23.426 C38.145,21.916 37.608,20.64 36.535,19.596 C35.46,18.55 34.168,18.026 32.659,18.026 L23.689,18.026 L23.689,39.8 L32.659,39.8 C34.169,39.8 35.459,39.276 36.534,38.23 C37.608,37.186 38.144,35.88 38.144,34.312 L38.145,34.312 Z M19.945,27.172 L19.945,23.426 C19.945,21.916 19.407,20.64 18.333,19.596 C17.259,18.55 15.967,18.026 14.457,18.026 L5.487,18.026 L5.487,39.8 L10.887,39.8 L10.887,32.658 L14.457,32.658 C15.967,32.658 17.259,32.135 18.333,31.09 C19.407,30.045 19.943,28.74 19.943,27.17 L19.945,27.172 Z M50.858,0 C52.831,0 54.515,0.697 55.908,2.09 C57.303,3.483 58,5.167 58,7.14 L58,50.685 C58,52.659 57.303,54.371 55.91,55.823 C54.517,57.273 52.833,58 50.86,58 L7.314,58 C5.34,58 3.628,57.274 2.176,55.823 C0.727,54.37 0,52.66 0,50.685 L0,7.14 C0,5.167 0.726,3.483 2.177,2.09 C3.63,0.697 5.34,0 7.315,0 L50.86,0 L50.858,0 Z" id="Shape"></path>
                </g>
            </g>
        </g>
    </g>
</svg>
